X: 39316
T: Tally Rant
R: reel
M: 4/4
K: Adorian
ES|:ABcd e2ce|f2ed e2ce|d2cB c2Ac|BABc [1 A3E:|2 A3 e||
|:a2ba g2eg|fefg e4|efed e2 ce|d2cB c2AB|cdec d2 BA|
BcdB c2 AG|ABcd e2ce|f2ed e2ce|d2cB c2Ac|BABc [1 A3e:|2 A3SE||

